Catalina-light/apps/scalable/AdobeFlashBuilder.svg

<?xml version="1.0" encoding="UTF-8" standalone="no"?>
<!-- Created with Inkscape (http://www.inkscape.org/) -->

<svg
   xmlns:dc="http://purl.org/dc/elements/1.1/"
   xmlns:cc="http://creativecommons.org/ns#"
   xmlns:rdf="http://www.w3.org/1999/02/22-rdf-syntax-ns#"
   xmlns:svg="http://www.w3.org/2000/svg"
   xmlns="http://www.w3.org/2000/svg"
   xmlns:xlink="http://www.w3.org/1999/xlink"
   xmlns:sodipodi="http://sodipodi.sourceforge.net/DTD/sodipodi-0.dtd"
   xmlns:inkscape="http://www.inkscape.org/namespaces/inkscape"
   version="1.1"
   id="svg2"
   width="25.6"
   height="25.6"
   viewBox="0 0 25.6 25.6"
   sodipodi:docname="AdobeFlashBuilder.svg"
   inkscape:version="0.92.4 5da689c313, 2019-01-14">
  <metadata
     id="metadata8">
    <rdf:RDF>
      <cc:Work
         rdf:about="">
        <dc:format>image/svg+xml</dc:format>
        <dc:type
           rdf:resource="http://purl.org/dc/dcmitype/StillImage" />
        <dc:title></dc:title>
      </cc:Work>
    </rdf:RDF>
  </metadata>
  <defs
     id="defs6">
    <linearGradient
       inkscape:collect="always"
       id="linearGradient835">
      <stop
         style="stop-color:#45242a;stop-opacity:1"
         offset="0"
         id="stop831" />
      <stop
         style="stop-color:#281619;stop-opacity:1"
         offset="1"
         id="stop833" />
    </linearGradient>
    <linearGradient
       inkscape:collect="always"
       id="linearGradient825">
      <stop
         style="stop-color:#ae6472;stop-opacity:1"
         offset="0"
         id="stop821" />
      <stop
         style="stop-color:#9d515f;stop-opacity:1"
         offset="1"
         id="stop823" />
    </linearGradient>
    <linearGradient
       inkscape:collect="always"
       xlink:href="#linearGradient825"
       id="linearGradient827"
       x1="1.3016944"
       y1="1.6271178"
       x2="16.054235"
       y2="17.464407"
       gradientUnits="userSpaceOnUse" />
    <linearGradient
       inkscape:collect="always"
       xlink:href="#linearGradient835"
       id="linearGradient837"
       x1="4.6644068"
       y1="5.0983052"
       x2="20.338984"
       y2="21.206779"
       gradientUnits="userSpaceOnUse" />
  </defs>
  <sodipodi:namedview
     pagecolor="#ffffff"
     bordercolor="#666666"
     borderopacity="1"
     objecttolerance="10"
     gridtolerance="10"
     guidetolerance="10"
     inkscape:pageopacity="0"
     inkscape:pageshadow="2"
     inkscape:window-width="1920"
     inkscape:window-height="1027"
     id="namedview4"
     showgrid="false"
     inkscape:zoom="13.037281"
     inkscape:cx="11.898069"
     inkscape:cy="15.452744"
     inkscape:window-x="0"
     inkscape:window-y="30"
     inkscape:window-maximized="1"
     inkscape:current-layer="svg2" />
  <rect
     style="opacity:1;fill:url(#linearGradient827);fill-opacity:1;stroke:none;stroke-width:0.1;stroke-linecap:square;stroke-linejoin:miter;stroke-miterlimit:4;stroke-dasharray:none;stroke-dashoffset:0;stroke-opacity:1;paint-order:fill markers stroke"
     id="rect819"
     width="23.972881"
     height="23.972881"
     x="0.75932145"
     y="0.8677966" />
  <path
     style="opacity:1;fill:url(#linearGradient837);fill-opacity:1;stroke:none;stroke-width:0.1;stroke-linecap:square;stroke-linejoin:miter;stroke-miterlimit:4;stroke-dasharray:none;stroke-dashoffset:0;stroke-opacity:1;paint-order:fill markers stroke"
     d="M 2.60339,2.7661018 H 22.671187 V 22.833899 H 2.60339 Z"
     id="rect829" />
  <path
     style="opacity:1;fill:#000000;fill-opacity:0.26373628;stroke:none;stroke-width:0.1;stroke-linecap:square;stroke-linejoin:miter;stroke-miterlimit:4;stroke-dasharray:none;stroke-dashoffset:0;stroke-opacity:1;paint-order:fill markers stroke"
     d="M 2.6035156 2.765625 L 2.6035156 22.833984 L 22.671875 22.833984 L 22.671875 2.765625 L 2.6035156 2.765625 z M 3.0097656 3.1738281 L 22.263672 3.1738281 L 22.263672 22.427734 L 3.0097656 22.427734 L 3.0097656 3.1738281 z "
     id="rect839" />
  <g
     aria-label="FI"
     transform="scale(0.96271863,1.0387251)"
     style="font-style:normal;font-variant:normal;font-weight:600;font-stretch:normal;font-size:10.36268711px;line-height:125%;font-family:'Source Sans Pro';-inkscape-font-specification:'Source Sans Pro Semi-Bold';letter-spacing:0px;word-spacing:0px;fill:#a3606c;fill-opacity:1;stroke:none;stroke-width:0.25906721px;stroke-linecap:butt;stroke-linejoin:miter;stroke-opacity:1"
     id="text846">
    <path
       d="M 9.7062887,15.775281 H 10.90836 v -2.829014 h 2.46632 v -1.015543 h -2.46632 v -1.917097 h 2.89119 V 8.9980836 H 9.7062887 Z"
       style="fill:#a3606c;fill-opacity:1;stroke-width:0.25906721px"
       id="path1127" />
    <path
       d="m 14.991361,15.775281 h 1.202071 V 8.9980836 h -1.202071 z"
       style="fill:#a3606c;fill-opacity:1;stroke-width:0.25906721px"
       id="path1129" />
  </g>
</svg>

<svg width="25.6" height="25.6" version="1.1" viewBox="0 0 25.6 25.6" xmlns="http://www.w3.org/2000/svg">
<defs>
<linearGradient id="linearGradient827" x1="1.3017" x2="16.054" y1="1.6271" y2="17.464" gradientUnits="userSpaceOnUse"/>
<linearGradient id="linearGradient837" x1="4.6644" x2="20.339" y1="5.0983" y2="21.207" gradientUnits="userSpaceOnUse"/>
</defs>
<rect x=".75932" y=".8678" width="23.973" height="23.973" fill="url(#linearGradient827)" style="paint-order:fill markers stroke"/>
<path d="m2.6034 2.7661h20.068v20.068h-20.068z" fill="url(#linearGradient837)" style="paint-order:fill markers stroke"/>
<path d="m2.6035 2.7656v20.068h20.068v-20.068h-20.068zm0.40625 0.4082h19.254v19.254h-19.254v-19.254z" fill-opacity=".26374" style="paint-order:fill markers stroke"/>
<g transform="scale(.96272 1.0387)" fill="#a3606c" stroke-width=".25907px" aria-label="FI">
<path d="m9.7063 15.775h1.2021v-2.829h2.4663v-1.0155h-2.4663v-1.9171h2.8912v-1.0155h-4.0933z"/>
<path d="m14.991 15.775h1.2021v-6.7772h-1.2021z"/>
</g>
</svg>
